X: 135
T:Wi' a 100 Pipers
% Nottingham Music Database
S:Kevin Briggs, via EF
Y:AB
M:6/8
K:A
P:A
A/2B/2|"A"c2E EFE|"D"F2A A2f|"A"e2c "A/c+"cBA|"B7/f+"c2B "E7"BAB|
"A"c2E EFE|"D"F2A A2f|"A"e2c "E7"BcB|"A"A3 A2:|
P:B
c/2d/2|"A"e2e ece|"D"f2a agf|"A"e2c "A/c+"cBA|"B7/f+"c2B "E7"Bcd|
"A"e2e ece|"D"f2a agf|"A"e2c "E7"BcB|"A"A3 A2:|


